X:1
T:D Major Daniel Read, 1804 (Revised 1807)
T:Charles Wesley, 1749 66. 86. (S. M.)
T:Christian Soldier No copyright.  Transcribed from The Columbian Harmonist, 1807.
%%score [ 1 2 3 4 ]
L:1/8
M:4/4
K:D
V:1 treble nm="Tr." snm="Tr."
V:2 treble nm="C." snm="C."
V:3 treble-8 nm="T." snm="T."
V:4 bass nm="B." snm="B."
V:1
 A4 | d4 d4 | f4 (e2 d2) | c8 | z4 A4 | A4 A4 | d4 c4 | d8 | z4 d4 | A6 F2 | B6 d2 | e4 d4 | %12
 c6 d2 | A4 B4 | c4 B4 | A8 | z4 A4 | d4 c4 | d4 f4 | e6 d2 | d4 e4 | A4 c4 | d8 | z4 A4 | %24
 (d2 c2) (d2 e2) | d6 c2 | (d2 c2) (d2 e2) | f6 f2 | f4 d4 | d4 B4 | c8 | z4 d4 | d4 e4 | f4 d4 | %34
 B4 (c2 d2) | e6 d2 | f4 d4 | d4 c4 | d8 |] %39
V:2
 D4 | A4 A4 | A4 ^G4 | A8 | z4 A4 | A4 (E2 F2) | G4 (F2 G2) | A8 | z4 F4 | F6 F2 | G6 B2 | A4 A4 | %12
w: 1.~Sol-|diers of|Christ, a-|rise,|And|put your *|ar- mor *|on;|Strong|in the|strength which|God sup-|
 A6 F2 | F4 E4 | F4 E4 | E8 | z4 F4 | A4 A4 | A4 B4 | B6 G2 | A4 E4 | A4 A4 | F8 | z4 F4 | %24
w: plies, Through|His e-|ter- nal|Son.|Strong|in the|Lord of|hosts, and|in His|migh- ty|power;|Who|
 (F2 E2) (F2 G2) | F6 E2 | (F2 E2) (F2 G2) | A6 A2 | A4 D4 | F4 E4 | E8 | z4 F4 | G4 G4 | F4 F4 | %34
w: in * the *|strength of|Jes- * us *|trusts Is|more than|con- quer-|or;|Who|in the|strength of|
 E4 E4 | E6 A2 | A4 B4 | A4 A4 | A8 |] %39
w: Jes- us|trusts Is|more than|con- quer-|or.|
V:3
 D4 | F4 A4 | d4 (c2 B2) | e8 | z4 d4 | f4 (e2 d2) | B4 (A3 G) | F8 | z4 A4 | A6 d2 | d6 B2 | %11
 e4 f4 | e6 d2 | c4 B4 | A4 ^G4 | A8 | z4 D4 | F4 A4 | d4 F4 | G6 B2 | A4 G4 | F4 E4 | D8 | z8 | %24
 z8 | z8 | z8 | z4 z2 d2 | d4 B4 | A4 ^G4 | A8 | z4 A4 | (B2 ^A2) (B2 c2) | d4 F4 | %34
 (G2 F2) (E2 D2) | A6 A2 | d4 (3(B2 A2 G2) | F4 E4 | D8 |] %39
V:4
 D,4 | D,4 F,4 | D,4 E,4 | A,,8 | z4 D,4 | A,,4 A,,4 | G,,4 A,,4 | D,8- | D,4 D,4 | D,6 D,2 | %10
 G,6 G,2 | A,4 D4 | A,6 D,2 | (F,2 A,2) (E,2 G,2) | (F,2 D,2) E,4 | A,,8 | z4 D,4 | D,4 F,4 | %18
 D,4 B,,4 | E,6 G,2 | F,4 E,4 | D,4 A,,4 | D,8 | z8 | z8 | z8 | z8 | z4 z2 D,2 | D,4 (F,2 G,2) | %29
 (F,2 D,2) E,4 | A,,8 | z4 D,4 | (G,2 F,2) E,4 | D,4 D,4 | (E,2 D,2) (C,2 B,,2) | A,,6 D,2 | %36
 D,4 G,4 | A,4 A,,4 | D,8 |] %39

